!!!ONB: MCCC : ILB0185_01 : Extracted Monophonic Melody
!!!COM: Beethoven, Ludwig van
!!!OPR: Piano Sonata No.24
!!!OMV: 1
!!!SCT: Op.78
!!!ODT: 1809///
**kern
*thru
*staff1
*Ipiano
*>I
*clefG2
*k[f#c#g#d#a#e#]
*F#:
*M2/4
*MM60
=1
4c#
8.f#
16g#
=2
4g#
8a#
8a#
=3
4b
8.dd#
16cc#
=4
32b
32a#
32dd#
32cc#
8cc#
*MM120	*MM120	*MM120
8.a#
16b
=5
*M4/4
4cc#
4f#
4e#
4f#
=6
*>A
2.b
4g#
=7
4a#
4dd#
4cc#
4ff#
=8
4ee#
4dd#
4cc#
16a#
16b
16a#
16f#
=9
16b
16cc#
16b
16g#
4e#
4r
16b
16cc#
16b
16g#
=10
16cc#
16dd#
16cc#
16a#
4f#
4r
12ff#
12ee#
12dd#
=11
12cc#
12b
12a#
12g#
12f#
12e#
12d#
12c#
12B#
12c#
12d#
12e#
=12
4f#
4g#
4a#
4r
=13
4a#
4r
4b
4r
=14
4g#
4a#
4b
4r
=15
4b
4r
4cc#
4r
=16
4a#
16cc#
16dd#
16cc#
16a#
[2ff#
=17
4ff#]
8.ee#
16ff#
4gg#
4ee#
=18
16cc##
16bb
16aa#
16cc##
16cc##
16bb
16aa#
16cc##
16cc##
16bb
16aa#
16cc##
16cc##
16bb
16aa#
16cc##
=19
16dd#
16bb
16aa#
16dd#
16ee#
16bb
16aa#
16ee#
16ff#
16bb
16aa#
16ff#
16ddd#
16aa#
16ff#
16dd#
=20
16bb#
16ff#
16dd#
16bb#
16ddd#
16ff#
16dd#
16ccc#
16bb#
16ff#
16dd#
16bb#
16ddd#
16ff#
16dd#
16ccc#
=21
16bb#
16ff#
16dd#
16bb#
16ddd#
16ff#
16dd#
16ddd#
16gg#
16ff#
16dd#
16gg#
16aa#
16ff#
16dd#
16aa#
=22
16bb#
16ff#
16dd#
16bb#
16ddd#
16ff#
16dd#
16ccc#
16bb#
16ff#
16dd#
16bb#
16ddd#
16ff#
16dd#
16ccc#
=23
16bb#
16ff#
16dd#
16bb#
16ddd#
16ff#
16dd#
16ddd#
16gg#
16ff#
16dd#
16gg#
16aa#
16ff#
16dd#
16aa#
=24
16bb#
16gg#
16dd#
16bb#
16ccc#
16gg#
16cc#
16ccc#
16ccc#
16gg#
16cc#
16ccc#
16ccc#
16gg#
16cc#
16ccc#
=25
16ccc#
16ff##
16cc#
16ccc#
16ccc#
16ff##
16cc#
16ccc#
16ccc#
16ff##
16cc#
16ccc#
16ccc#
16ff##
16cc#
16ccc#
=26
16ccc#
16ff##
16cc#
16ccc#
16ccc#
16ff##
16cc#
16ccc#
16ccc#
16ff##
16cc#
16ccc#
16ccc#
16ff##
16cc#
16ccc#
=27
16ccc#
16ff#
16cc#
16ccc#
16ccc#
16ff#
16cc#
16ccc#
16bb#
16ff#
16b#
16bb#
16bb#
16ff#
16b#
16bb#
=28
4ccc#
4r
12ee#
12cc#
12g#
12a#
12cc#
12a#
=29
12g#
12cc#
12dd#
12ee#
12cc#
12gg#
12ee#
12cc#
12g#
12f#
12d#
12g#
=30
4e#
12g#
12cc#
12dd#
12ee#
12cc#
12g#
12a#
12cc#
12a#
=31
12g#
12cc#
12dd#
12ee#
12cc#
12gg#
4cc##
4dd#
=32
2b#
16f#
16g#
16f#
16e#
16f#
16dd#
16cc#
16b#
=33
16cc#
16g#
16cc#
16ee#
16gg#
16ccc#
16eee#
16ddd#
4ccc##
4ddd#
=34
2bb#
16ff#
16gg#
16ff#
16ee#
16ff#
16ddd#
16ccc#
16bb#
=35
16ccc#
16gg#
16ee#
16cc#
16g#
16cc#
16g#
16e#
16f#
16g#
16f#
16e#
16f#
16dd#
16cc#
16b#
=36
16cc#
16g#
16e#
16c#
16G#
16c#
16G#
16E#
4r
4f#
=37
4r
4f#
4r
4g#
=38
*>A1
4r
4g#
4r
8.a#
16b
=39
4cc#
4f#
4e#
4f#
=40
*>A
2.b
4g#
=41
4a#
4dd#
4cc#
4ff#
=42
4ee#
4dd#
4cc#
16a#
16b
16a#
16f#
=43
16b
16cc#
16b
16g#
4e#
4r
16b
16cc#
16b
16g#
=44
16cc#
16dd#
16cc#
16a#
4f#
4r
12ff#
12ee#
12dd#
=45
12cc#
12b
12a#
12g#
12f#
12e#
12d#
12c#
12B#
12c#
12d#
12e#
=46
4f#
4g#
4a#
4r
=47
4a#
4r
4b
4r
=48
4g#
4a#
4b
4r
=49
4b
4r
4cc#
4r
=50
4a#
16cc#
16dd#
16cc#
16a#
[2ff#
=51
4ff#]
8.ee#
16ff#
4gg#
4ee#
=52
16cc##
16bb
16aa#
16cc##
16cc##
16bb
16aa#
16cc##
16cc##
16bb
16aa#
16cc##
16cc##
16bb
16aa#
16cc##
=53
16dd#
16bb
16aa#
16dd#
16ee#
16bb
16aa#
16ee#
16ff#
16bb
16aa#
16ff#
16ddd#
16aa#
16ff#
16dd#
=54
16bb#
16ff#
16dd#
16bb#
16ddd#
16ff#
16dd#
16ccc#
16bb#
16ff#
16dd#
16bb#
16ddd#
16ff#
16dd#
16ccc#
=55
16bb#
16ff#
16dd#
16bb#
16ddd#
16ff#
16dd#
16ddd#
16gg#
16ff#
16dd#
16gg#
16aa#
16ff#
16dd#
16aa#
=56
16bb#
16ff#
16dd#
16bb#
16ddd#
16ff#
16dd#
16ccc#
16bb#
16ff#
16dd#
16bb#
16ddd#
16ff#
16dd#
16ccc#
=57
16bb#
16ff#
16dd#
16bb#
16ddd#
16ff#
16dd#
16ddd#
16gg#
16ff#
16dd#
16gg#
16aa#
16ff#
16dd#
16aa#
=58
16bb#
16gg#
16dd#
16bb#
16ccc#
16gg#
16cc#
16ccc#
16ccc#
16gg#
16cc#
16ccc#
16ccc#
16gg#
16cc#
16ccc#
=59
16ccc#
16ff##
16cc#
16ccc#
16ccc#
16ff##
16cc#
16ccc#
16ccc#
16ff##
16cc#
16ccc#
16ccc#
16ff##
16cc#
16ccc#
=60
16ccc#
16ff##
16cc#
16ccc#
16ccc#
16ff##
16cc#
16ccc#
16ccc#
16ff##
16cc#
16ccc#
16ccc#
16ff##
16cc#
16ccc#
=61
16ccc#
16ff#
16cc#
16ccc#
16ccc#
16ff#
16cc#
16ccc#
16bb#
16ff#
16b#
16bb#
16bb#
16ff#
16b#
16bb#
=62
4ccc#
4r
12ee#
12cc#
12g#
12a#
12cc#
12a#
=63
12g#
12cc#
12dd#
12ee#
12cc#
12gg#
12ee#
12cc#
12g#
12f#
12d#
12g#
=64
4e#
12g#
12cc#
12dd#
12ee#
12cc#
12g#
12a#
12cc#
12a#
=65
12g#
12cc#
12dd#
12ee#
12cc#
12gg#
4cc##
4dd#
=66
2b#
16f#
16g#
16f#
16e#
16f#
16dd#
16cc#
16b#
=67
16cc#
16g#
16cc#
16ee#
16gg#
16ccc#
16eee#
16ddd#
4ccc##
4ddd#
=68
2bb#
16ff#
16gg#
16ff#
16ee#
16ff#
16ddd#
16ccc#
16bb#
=69
16ccc#
16gg#
16ee#
16cc#
16g#
16cc#
16g#
16e#
16f#
16g#
16f#
16e#
16f#
16dd#
16cc#
16b#
=70
16cc#
16g#
16e#
16c#
16G#
16c#
16G#
16E#
4r
4f#
=71
4r
4f#
4r
4g#
=72
*>A2
4r
4g#
4r
8.a
16b
=73
*>B
4cc#
4f#
4e#
4f#
=74
2.dd
4dd
=75
2dd
4.ee
8b
=76
16cc#
16ee
16cc#
16ee
16cc#
16ee
16cc#
16ee
16cc#
16ee
16cc#
16ee
16cc#
16ee
16cc#
16ee
=77
16cc#
16dd#
16cc#
16dd#
16b
16dd#
16b
16dd#
16b
16dd#
16b
16dd#
8.bb
16ccc#
=78
4ddd#
4gg#
4ff##
4gg#
=79
16gg#
16bb
16aa#
16gg#
16gg#
16bb
16aa#
16gg#
16gg#
16bb
16aa#
16gg#
16gg#
16bb
16aa#
16gg#
=80
16gg#
16bb
16aa#
16gg#
16bb
16gg#
16ff#
16ee#
16bb
16gg#
16ff#
16ee#
16aa#
16gg#
16ff#
16ee#
=81
16ff#
16aa#
16gg#
16ff#
16gg#
16ff#
16ee#
16dd#
16cc##
16ee#
16dd#
16cc##
16aa#
16gg#
16ff#
16ee#
=82
16ff#
16aa#
16gg#
16ff#
16gg#
16ff#
16ee#
16dd#
16b#
16dd#
16cc#
16b#
16gg#
16ff#
16ee
16dd#
=83
16ee
16gg#
16ff#
16ee
16ff#
16ee
16dd#
16cc#
16b#
16dd#
16cc#
16b#
16gg#
16ff#
16ee
16dd#
=84
16ee
16gg#
16ff#
16ee
16ff#
16ee
16dd#
16cc#
16a#
16cc#
16b
16a#
16ff#
16ee
16dd#
16cc#
=85
16b
16dd#
16cc#
16b
16ff#
16ee
16dd#
16cc#
16b
16dd#
16cc#
16b
16ff#
16ee
16dd#
16cc#
=86
16b
16dd#
16cc#
16b
16bb
16aa#
16gg#
16ff#
16ee#
16gg#
16ff#
16ee#
16bb
16aa#
16gg#
16ff#
=87
16ee#
16gg#
16ff#
16ee#
16ddd#
16ccc#
16bb
16aa#
16gg#
16bb
16aa#
16gg#
16ff#
16ee#
16dd#
16cc#
=88
16b
16dd#
16cc#
16b
16a#
16g#
16f#
16e#
16b
16a#
16g#
16f#
16e#
16d#
16c#
16B#
=89
1c#
=90
2.g#
8.a#
16b
=91
4cc#
4f#
4e#
4f#
=92
2.b
4g#
=93
4a#
4dd#
4cc#
4ff#
=94
4ee#
4dd#
4cc#
16a#
16b
16a#
16f#
=95
16b
16cc#
16b
16g#
4e#
4r
16b
16cc#
16b
16g#
=96
16cc#
16dd#
16cc#
16a#
4f#
4r
16a#
16b
16a#
16f#
=97
16cc#
16dd#
16cc#
16a#
4f##
4r
16cc#
16dd#
16cc#
16a#
=98
16dd#
16ee
16dd#
16b
4g#
4r
12eee
12ddd#
12ccc#
=99
12bb
12aa
12gg#
12ff#
12ee
12dd#
12cc#
12b
12a#
12b
12cc#
12dd#
=100
4ee
4ff#
4gg#
4r
=101
4g#
4r
4a
4r
=102
4ff#
4gg#
4aa
4r
=103
4a
4r
4b
4r
=104
4gg#
4aa#
4bb
4r
=105
4dd
4r
4ee
4r
=106
4aa#
4bb
4ccc#
4r
=107
4cc#
4dd#
4ee
4r
=108
4cc#
4r
4ee
4r
=109
4dd#
16ff#
16gg#
16ff#
16dd#
[2bb
=110
4bb]
8.aa#
16bb
4ccc#
4aa#
=111
*8va
16ff##
16eee
16ddd#
16ff##
16ff##
16eee
16ddd#
16ff##
16ff##
16eee
16ddd#
16ff##
16ff##
16eee
16ddd#
16ff##
=112
16gg#
16eee
16ddd#
16gg#
16aa#
16eee
16ddd#
16aa#
16bb
16eee
16ddd#
16bb
16ggg#
16ddd#
16bb
16gg#
=113
16eee#
16bb
16gg#
16eee#
16ggg#
16bb
16gg#
16fff#
16eee#
16bb
16gg#
16eee#
16ggg#
16bb
16gg#
16fff#
=114
16eee#
16bb
16gg#
16eee#
16ggg#
16bb
16gg#
16ggg#
16ccc#
16bb
16gg#
16ccc#
16ddd#
16bb
16gg#
16ddd#
=115
16eee#
16bb
16gg#
16eee#
16ggg#
16bb
16gg#
16fff#
16eee#
16bb
16gg#
16eee#
16ggg#
16bb
16gg#
16fff#
=116
16eee#
16bb
16gg#
16eee#
16ggg#
16bb
16gg#
16ggg#
16ccc#
16bb
16gg#
16ccc#
16ddd#
16bb
16gg#
16ddd#
=117
16eee#
16ccc#
16gg#
16eee#
16fff#
16ccc#
16ff#
16fff#
16fff#
16ccc#
16ff#
16fff#
16fff#
16ccc#
16ff#
16fff#
=118
16fff#
16bb#
16ff#
16fff#
16fff#
16bb#
16ff#
16fff#
16fff#
16bb#
16ff#
16fff#
16fff#
16bb#
16ff#
16fff#
=119
16fff#
16bb#
16ff#
16fff#
16fff#
16bb#
16ff#
16fff#
16fff#
16bb#
16ff#
16fff#
16fff#
16bb#
16ff#
16fff#
=120
16fff#
16bb
16ff#
16fff#
16fff#
16bb
16ff#
16fff#
16eee#
16bb
16ee#
16eee#
16eee#
16bb
16ee#
16eee#
=121
4fff#
*X8va
4r
12aa#
12ff#
12cc#
12dd#
12ff#
12dd#
=122
12cc#
12ff#
12gg#
12aa#
12ff#
12ccc#
12aa#
12ff#
12cc#
12b
12g#
12cc#
=123
4a#
12cc#
12ff#
12gg#
12aa#
12ff#
12cc#
12dd#
12ff#
12dd#
=124
12cc#
12ff#
12gg#
12aa#
12ff#
12ccc#
4ff##
4gg#
=125
2ee#
16b
16cc#
16b
16a#
16b
16gg#
16ff#
16ee#
=126
16ff#
16cc#
16a#
16cc#
*8va
16ff#
16aa#
16ccc#
16fff#
4fff##
4ggg#
=127
2eee#
16bb
16ccc#
16bb
16aa#
16bb
16ggg#
16fff#
16eee#
=128
16fff#
16ccc#
16aa#
16ff#
*X8va
16cc#
16ff#
16cc#
16a#
16b
16cc#
16b
16a#
16b
16gg#
16ff#
16ee#
=129
16ff#
16cc#
16a#
16f#
16c#
16f#
16c#
16A#
4r
4b
=130
4r
4b
4r
4cc#
=131
4r
4cc#
4r
8.a#
16b
=132
4r
4cc#
4r
8.a#
16b
=133
4cc#
4f#
4g
4e
=134
4ee
4cc#
4dd
4b
=135
4bb
4gg#
4ddd
4ccc#
=136
4r
4ccc#
4r
4ccc#
=137
4r
4ccc#
4r
4ccc#
=138
4r
4fff#
4fff#
4fff#
=139
*>B1
4fff#
4r
4r
8.a
16b
=140
*>B
4cc#
4f#
4e#
4f#
=141
2.dd
4dd
=142
2dd
4.ee
8b
=143
16cc#
16ee
16cc#
16ee
16cc#
16ee
16cc#
16ee
16cc#
16ee
16cc#
16ee
16cc#
16ee
16cc#
16ee
=144
16cc#
16dd#
16cc#
16dd#
16b
16dd#
16b
16dd#
16b
16dd#
16b
16dd#
8.bb
16ccc#
=145
4ddd#
4gg#
4ff##
4gg#
=146
16gg#
16bb
16aa#
16gg#
16gg#
16bb
16aa#
16gg#
16gg#
16bb
16aa#
16gg#
16gg#
16bb
16aa#
16gg#
=147
16gg#
16bb
16aa#
16gg#
16bb
16gg#
16ff#
16ee#
16bb
16gg#
16ff#
16ee#
16aa#
16gg#
16ff#
16ee#
=148
16ff#
16aa#
16gg#
16ff#
16gg#
16ff#
16ee#
16dd#
16cc##
16ee#
16dd#
16cc##
16aa#
16gg#
16ff#
16ee#
=149
16ff#
16aa#
16gg#
16ff#
16gg#
16ff#
16ee#
16dd#
16b#
16dd#
16cc#
16b#
16gg#
16ff#
16ee
16dd#
=150
16ee
16gg#
16ff#
16ee
16ff#
16ee
16dd#
16cc#
16b#
16dd#
16cc#
16b#
16gg#
16ff#
16ee
16dd#
=151
16ee
16gg#
16ff#
16ee
16ff#
16ee
16dd#
16cc#
16a#
16cc#
16b
16a#
16ff#
16ee
16dd#
16cc#
=152
16b
16dd#
16cc#
16b
16ff#
16ee
16dd#
16cc#
16b
16dd#
16cc#
16b
16ff#
16ee
16dd#
16cc#
=153
16b
16dd#
16cc#
16b
16bb
16aa#
16gg#
16ff#
16ee#
16gg#
16ff#
16ee#
16bb
16aa#
16gg#
16ff#
=154
16ee#
16gg#
16ff#
16ee#
16ddd#
16ccc#
16bb
16aa#
16gg#
16bb
16aa#
16gg#
16ff#
16ee#
16dd#
16cc#
=155
16b
16dd#
16cc#
16b
16a#
16g#
16f#
16e#
16b
16a#
16g#
16f#
16e#
16d#
16c#
16B#
=156
1c#
=157
2.g#
8.a#
16b
=158
4cc#
4f#
4e#
4f#
=159
2.b
4g#
=160
4a#
4dd#
4cc#
4ff#
=161
4ee#
4dd#
4cc#
16a#
16b
16a#
16f#
=162
16b
16cc#
16b
16g#
4e#
4r
16b
16cc#
16b
16g#
=163
16cc#
16dd#
16cc#
16a#
4f#
4r
16a#
16b
16a#
16f#
=164
16cc#
16dd#
16cc#
16a#
4f##
4r
16cc#
16dd#
16cc#
16a#
=165
16dd#
16ee
16dd#
16b
4g#
4r
12eee
12ddd#
12ccc#
=166
12bb
12aa
12gg#
12ff#
12ee
12dd#
12cc#
12b
12a#
12b
12cc#
12dd#
=167
4ee
4ff#
4gg#
4r
=168
4g#
4r
4a
4r
=169
4ff#
4gg#
4aa
4r
=170
4a
4r
4b
4r
=171
4gg#
4aa#
4bb
4r
=172
4dd
4r
4ee
4r
=173
4aa#
4bb
4ccc#
4r
=174
4cc#
4dd#
4ee
4r
=175
4cc#
4r
4ee
4r
=176
4dd#
16ff#
16gg#
16ff#
16dd#
[2bb
=177
4bb]
8.aa#
16bb
4ccc#
4aa#
=178
*8va
16ff##
16eee
16ddd#
16ff##
16ff##
16eee
16ddd#
16ff##
16ff##
16eee
16ddd#
16ff##
16ff##
16eee
16ddd#
16ff##
=179
16gg#
16eee
16ddd#
16gg#
16aa#
16eee
16ddd#
16aa#
16bb
16eee
16ddd#
16bb
16ggg#
16ddd#
16bb
16gg#
=180
16eee#
16bb
16gg#
16eee#
16ggg#
16bb
16gg#
16fff#
16eee#
16bb
16gg#
16eee#
16ggg#
16bb
16gg#
16fff#
=181
16eee#
16bb
16gg#
16eee#
16ggg#
16bb
16gg#
16ggg#
16ccc#
16bb
16gg#
16ccc#
16ddd#
16bb
16gg#
16ddd#
=182
16eee#
16bb
16gg#
16eee#
16ggg#
16bb
16gg#
16fff#
16eee#
16bb
16gg#
16eee#
16ggg#
16bb
16gg#
16fff#
=183
16eee#
16bb
16gg#
16eee#
16ggg#
16bb
16gg#
16ggg#
16ccc#
16bb
16gg#
16ccc#
16ddd#
16bb
16gg#
16ddd#
=184
16eee#
16ccc#
16gg#
16eee#
16fff#
16ccc#
16ff#
16fff#
16fff#
16ccc#
16ff#
16fff#
16fff#
16ccc#
16ff#
16fff#
=185
16fff#
16bb#
16ff#
16fff#
16fff#
16bb#
16ff#
16fff#
16fff#
16bb#
16ff#
16fff#
16fff#
16bb#
16ff#
16fff#
=186
16fff#
16bb#
16ff#
16fff#
16fff#
16bb#
16ff#
16fff#
16fff#
16bb#
16ff#
16fff#
16fff#
16bb#
16ff#
16fff#
=187
16fff#
16bb
16ff#
16fff#
16fff#
16bb
16ff#
16fff#
16eee#
16bb
16ee#
16eee#
16eee#
16bb
16ee#
16eee#
=188
4fff#
*X8va
4r
12aa#
12ff#
12cc#
12dd#
12ff#
12dd#
=189
12cc#
12ff#
12gg#
12aa#
12ff#
12ccc#
12aa#
12ff#
12cc#
12b
12g#
12cc#
=190
4a#
12cc#
12ff#
12gg#
12aa#
12ff#
12cc#
12dd#
12ff#
12dd#
=191
12cc#
12ff#
12gg#
12aa#
12ff#
12ccc#
4ff##
4gg#
=192
2ee#
16b
16cc#
16b
16a#
16b
16gg#
16ff#
16ee#
=193
16ff#
16cc#
16a#
16cc#
*8va
16ff#
16aa#
16ccc#
16fff#
4fff##
4ggg#
=194
2eee#
16bb
16ccc#
16bb
16aa#
16bb
16ggg#
16fff#
16eee#
=195
16fff#
16ccc#
16aa#
16ff#
*X8va
16cc#
16ff#
16cc#
16a#
16b
16cc#
16b
16a#
16b
16gg#
16ff#
16ee#
=196
16ff#
16cc#
16a#
16f#
16c#
16f#
16c#
16A#
4r
4b
=197
4r
4b
4r
4cc#
=198
4r
4cc#
4r
8.a#
16b
=199
4r
4cc#
4r
8.a#
16b
=200
4cc#
4f#
4g
4e
=201
4ee
4cc#
4dd
4b
=202
4bb
4gg#
4ddd
4ccc#
=203
4r
4ccc#
4r
4ccc#
=204
4r
4ccc#
4r
4ccc#
=205
4r
4fff#
4fff#
4fff#
=206
*>B2
4fff#
4r
2r
==
*-
